X: 10431
T: Donegal Castle
R: hornpipe
M: 4/4
K: Gmajor
|:(3def|g>d (3Bcd g>bf>a|e2 A>G F2 c>A|G2 e>G F2 d>F|G>g (3c'ba (3gag (3fed|
G2 B>d g2 f>a|e>cA>G (3FdF (3cBA|(3GDG e>G (3F^EF D>F|G>dc>A G2:|
K: Dmaj
|:(3BAG|F2 d>A F2 A>F|G2 d>B G2 B>G|A2 e>c g>ec>e|d2 f>d (3cBA (3GFE|
F>A (3fdA (3FAd (3fdA|G>B (3gdB (3GBd (3gdB|c2 c'>b a>gf>e|(3dcd (3cAF [D2d2]:|

